X: 40088
T: Thunderhead
R: jig
M: 6/8
K: Gmajor
[M:7/8 ]B3 fB Bf|eBB dB BA|B3 f2Gf|edB AG GA|
B3 fB Bf|EBB dB ef|gfe fd dB|ADF AB Bc:|
dGG AG GE|DEG F2F2|EFF EFF2|GFE F2F2|
dBG AG GE|DEG F2FA|(3BcdB ce eg|(3fgaf g2 g2|
dGG AG GE|DEG F2F2|EFF EFF2|GFE F2F2|
dBG AG GE|DEG F2GA|[M:6/8]Bde fgf|[M:7/8]edB AG GA||

